X:1
T:Vergine bella
T:Marco da Gagliano 1582 - 1643
T:Vergine bella
T: Per la Beatíssima Virgine
T:(C) Wim Looyestijn - 2018. May be freely copied for non-commercial use.
T:(C) Wim Looyestijn - 2018. May be freely copied for non-commercial use.
T:(C) Wim Looyestijn - 2018. May be freely copied for non-commercial use.
T:(C) Wim Looyestijn - 2018. May be freely copied for non-commercial use.
T:(C) Wim Looyestijn - 2018. May be freely copied for non-commercial use.
T:(C) Wim Looyestijn - 2018. May be freely copied for non-commercial use.
T:(C) Wim Looyestijn - 2018. May be freely copied for non-commercial use.
T:(C) Wim Looyestijn - 2018. May be freely copied for non-commercial use.
C:Marco da Gagliano
C:1582 - 1643
Z:(C) Wim Looyestijn - 2018. May be freely copied for non-commercial use.
%%score [ 1 2 3 ] 4
L:1/8
Q:1/4=120
M:4/4
K:F
V:1 alto1 nm="Canto-1" snm="C1"
V:2 alto1 nm="Canto-2" snm="C2"
V:3 tenor nm="Tenor" snm="T"
V:4 bass nm="Basso" snm="BC"
V:1
 x8 | z8 | x8 | d6 GG | B8 | A6 d2- | d2 c2 B4 | A2 B4- B>A | B2 B4 A2 | G2 F2 F3 E | F8 | %11
w: |||Ver- gi- ne|bel-|la che|_ di sol|ves- ti- * ta,|_ che di|sol ves- ti- ta,|_|
 c2 c2 c2 BA | B4 A4 | z2 A2 A2 G2 | F2 EA A2 G2 | A4 z2 d2 | f2 e2 d4 | z8 | z2 d2 d2 A2 | %19
w: co- ro- na- ta di|stel- le|al som- mo|so- le, pia- ces- ti|si, pia-|ces- ti- si,||ch'in te sua|
 =B2 c2 d4 | c8 | z2 c2 d2 B2 | A2 G2 A4 | z2 f4 _e2- | e2 d2 c4 | B4 z2 d2 | c>B A>G F2 f2 | %27
w: lu- ce as- co-|se.|A- mor mi|spin- gea dir|di te|_ pa- ro-|le. Ma|non sò in- co- min- ciar, ma|
 e>d c>B A2 ^F2- | F^F G2 A4 | A2 d2 B2 c2 | d2 c2 B4 | A4 G3 F | E4 D4 | z4 z2 c2- | c2 d4 G2 | %35
w: non sò in- co- min- ciar sen-|* za tua ai-|ta.- E di- co|lui ch'a- man-|do in te si|po- se,|in|_ vo- co|
 A2 dd d2 BA | B4 A4 | z2 G2 D2 G2 | F3 F E/D/C/D/ E/F/E/F/ | G2 Dd A2 d2 | %40
w: lei che ben sem- pre ris-|po- se.|Chi la chia-|mò con fe- * * * * * * *|* de, chi la chia-|
 c3 c B/A/G/A/ B/c/B/c/ | d4 G2 c2 | F2 B2 A3 A | G4 A4 | z4 f4- | f2 c2 c4 | c2 d2 _e4 | %47
w: mò con fe- * * * * * * *|* de, chi|la chia- mò con|fe- de.|Ver-|* gi- ne|s'a mer- ce|
 d2 D2 D3 D | D4 ^C2 DD | D3 C D4 | D2 A2 B2 c2 | d4 BB c2- | c2 c=B c4 | G4 z2 F2 | cd_ef c4 | %55
w: de mi- se- ria es-|tre- ma dell' hu-|ma- ne co-|se, gia- mai ti|vol- se al mio pre-|* go t'in- chi-|na, soc-|cor- ri al- la mia guer-|
 B4 f4- | f2 ed cBcd | _e3 e d4 | c4 z ABc | d4 z dcB | A2 G/A/B/c/ A4 | G16 |] %62
w: ra. Ben|_ ch'io sia ter- ra e tu del|ciel Re- gi-|na, e tu del|ciel, e tu del|ciel Re- * * * gi-|na.|
V:2
 x8 | z8 | x8 | z4 B4- | B2 ^FF G4- | G4 ^F4 | z2 _e4 d2 | c2 B2 c4 | B2 d4 c2 | B2 A2 G4 | A8 | %11
w: |||Ver-|* gi- ne bel-|* la|che di|sol ves- ti-|ta, che di|sol ves- ti-|ta,|
 z4 G2 G2 | G2 FE F4 | E4 z2 d2 | d2 c2 B4 | A2 d2 d4- | d2 ^c2 d4 | z2 c2 c2 G2 | B4 A2 d2- | %19
w: co- ro-|na- ta di stel-|le al|som- mo so-|le, pia- ces-|* ti si,|ch'in te sua|lu- ce as- co-|
 d2 c4 =B2 | c8 | z2 A2 B2 G2 | ^F2 G2 F4 | z2 d4 c2- | cB B4 A2 | B4 z2 B2 | A>G F>E D2 d2 | %27
w: |se.|A- mor mi|spin- gea dir|di te|_ pa- ro- *|le. Ma|non sò in- co- min- ciar, ma|
 c>B A>G ^F2 A2- | AA B2 ^F4 | ^F2 B2 G2 A2 | B2 ^F2 G4 | F2 F3 E D2- | D2 ^C2 D4 | z4 A4- | %34
w: non sò in- co- min- ciar sen-|* za tua ai-|ta.- E di- co|lui ch'a- man-|do in te si po-|* * se,|in|
 A4 B2 c2 | ^F4 z4 | z4 z2 dd | d2 BA B4 | A4 z2 G2 | D2 G2 F3 F | E/D/C/D/ E/F/E/F/ G4 | %41
w: _ vo- co|lei|che ben|sem- pre ris- po-|se. Chi|la chia- mò con|fe- * * * * * * * *|
 F2 A2 E2 A2- | A2 G3 G F2- | F2 E2 F4 | z4 d4- | d2 A2 A4 | AA B4 A2 | B2 F2 F2 G2 | F4 E2 ^FF | %49
w: de, chi la chia-|* mò con fe-|* * de.|Ver-|* gi- ne|s'a mer- ce _|de mi- se- ria es-|tre- ma dell' hu-|
 G3 G ^F4 | ^F2 F2 G2 A2 | B2 FF G4 | F3 F E4 | E2 E2 ABcd | A2 B4 A2 | B2 d4 cB | AGAB c3 c | %57
w: ma- ne co-|se, gia- mai ti|vol- se al mio pre-|go t'in- chi-|na, soc- cor- ri al- la mia|guer- * *|ra. Ben ch'io sia|ter- ra e tu del ciel Re-|
 =B2 c4 B2 | ccBA G4 | z GFE D3 E | ^F2 G4 F2 | G16 |] %62
w: gi- * *|na, e tu del ciel,|e tu del ciel Re-|gi- * *|na.|
V:3
 x8 | z8 | x8 | z8 | z8 | D6 D,D, | _E,8 | F,2 F4 _E2 | D4 B,4 | C8 | F,4 F2 F2 | F2 ED _E4 | %12
w: |||||Ver- gi- ne|bel-|la che di|sol ves-|ti-|ta, co- ro-|na- ta di stel-|
 D4 z2 D2 | D2 C2 B,4 | A,4 z2 G,2 | G,2 ^F,2 G,3 G, | D,2 A,2 D,2 D2 | D2 A,2 C3 B,/A,/ | %18
w: le al|som- mo so-|le, pia-|ces- ti si, pia-|ces- ti- si, ch'in|te sua lu- * *|
 G,6 ^F,2 | G,8 | C,8 | z2 F,2 B,3 C | D2 _E2 D3 C | B,4 _E,4 | F,8 | B,3 A, B,>C D>E | F4 B,4 | %27
w: * ce as-|co-|se.|A- mor mi|spin- gea dir di|te pa-|ro-|le. Ma non sò in- co- min-|ciar sen-|
 C2 C2 D4- | D8 | D2 G,2 G,2 F,2 | B,2 A,2 G,A, B,C | D2 A,2 C2 G,2 | A,4 D,4 | z4 F,4- | %34
w: za tua ai-||ta.- E di- co|lui ch'a- man- * * *|* do in te si|po- se,|in|
 F,4 G,2 _E,2 | D,4 z4 | z2 G,G, G,2 ^F,F, | G,4 G,2 G,2 | D,2 D2 C3 C | %39
w: _ vo- co|lei|che ben sem- pre ris-|po- se. Chi|la chia- mò con|
 B,/A,/G,/A,/ B,/C/B,/C/ D4 | A,4 z2 G,2 | D,2 D2 C3 C | B,/A,/G,/A,/ B,/C/D/B,/ C4- | C4 F,4 | %44
w: fe- * * * * * * * *|de, chi|la chia- mò con|fe- * * * * * * * *|* de.|
 B,6 F,2 | F,8 | F,2 D,2 C,4 | B,,2 B,2 B,3 B, | A,4 A,2 D,D, | _E,3 E, D,4 | D,2 D,2 G,2 F,2 | %51
w: Ver- gi-|ne|s'a mer- ce|de mi- se- ria es-|tre- ma dell' hu-|ma- ne co-|se, gia- mai ti|
 B,4 _E,E, E,2- | E,2 D,D, C,4 | C,2 C,2 F,G,A,B, | F,8 | B,,2 B,4 A,G, | F,E,F,G, A,3 A, | G,8 | %58
w: vol- se al mio pre-|* go t'in- chi-|na, soc- cor- ri al- la mia|guer-|ra. Ben ch'io sia|ter- ra e tu del ciel Re-|gi-|
 C,4 z CB,A, | G,4 z A,B,C | D2 _E2 D4 | G,16 |] %62
w: na, e tu del|ciel, e tu del|ciel Re- gi-|na.|
V:4
 x8 | z8 | x8 | G,,8 | G,,8 | D,8 | _E,8 | F,8 | B,8 | C8 | F,8 | F,4 C4 | D,4 D,4 | A,4 B,4 | %14
 A,4 D,2 G,2 | G,2 ^F,2 G,4 | D,2 A,2 D,4 | D,2 A,2 C4 | G,6 ^F,2 | G,8 | C,8 | z2 F,2 B,3 C | %22
 D2 _E2 D4 | B,4 _E,4 | F,8 | B,,4 B,4 | F,4 B,4 | C4 D4 | D,8 | D,2 G,2 G,2 F,2 | B,2 A,2 G,4 | %31
 D,2 A,2 C2 G,2 | A,4 D,4 | z4 F,4- | F,4 G,2 _E,2 | D,8 | G,,4 D,4 | G,,8 | D,4 C4 | B,4 D,4 | %40
 A,4 G,4 | D,4 C4 | B,4 C4 | C,4 F,4 | B,,6 F,2 | F,8 | F,2 D,2 C,4 | B,,4 B,4 | A,4 A,2 D,2 | %49
 _E,4 D,4 | D,4 G,2 F,2 | B,4 _E,4- | E,2 D,2 C,4 | C,4 F,G, A,B, | F,8 | B,,8 | F,4 A,4 | G,8 | %58
 C,8 | G,4 G,,4 | D2 _E2 D4 | G,16 |] %62

